svgs/themed_icon_calendar_5.svg

<svg height="192" width="192" xmlns="http://www.w3.org/2000/svg"><path d="M146 30H46c-8.837 0-16 7.163-16 16v100c0 8.837 7.163 16 16 16h75.373a16 16 0 0 0 11.313-4.686l24.628-24.628A16 16 0 0 0 162 121.373V46c0-8.837-7.163-16-16-16Z" stroke="#000" stroke-width="12" fill="none"/><path d="M96.086 120.792c-2.448 0-4.968-.288-7.56-.864-2.592-.624-4.968-1.584-7.128-2.88-1.392-.768-2.256-1.752-2.592-2.952-.288-1.248-.192-2.4.288-3.456.528-1.104 1.344-1.872 2.448-2.304 1.152-.48 2.424-.336 3.816.432 3.36 1.824 6.864 2.736 10.512 2.736 2.736 0 4.848-.672 6.336-2.016 1.536-1.344 2.304-3.144 2.304-5.4 0-2.304-.744-4.152-2.232-5.544-1.44-1.392-3.408-2.088-5.904-2.088-1.248 0-2.52.216-3.816.648-1.296.384-2.592 1.08-3.888 2.088-.48.384-1.128.744-1.944 1.08a5.87 5.87 0 0 1-2.376.504c-2.928 0-4.392-1.368-4.392-4.104V74.064c0-3.216 1.608-4.824 4.824-4.824h23.112c3.216 0 4.824 1.536 4.824 4.608 0 3.024-1.608 4.536-4.824 4.536H90.686V89.76c2.352-1.536 5.184-2.304 8.496-2.304 3.216 0 6.024.696 8.424 2.088 2.4 1.344 4.272 3.24 5.616 5.688 1.344 2.448 2.016 5.28 2.016 8.496 0 3.408-.768 6.384-2.304 8.928-1.536 2.544-3.744 4.536-6.624 5.976-2.88 1.44-6.288 2.16-10.224 2.16Z"/></svg>

<?xml version="1.0" encoding="UTF-8" standalone="no"?><svg xmlns:android="http://schemas.android.com/apk/res/android" height="192" width="192" xmlns="http://www.w3.org/2000/svg">
  <path d="M146,30H46C37.163,30 30,37.163 30,46V146C30,154.837 37.163,162 46,162H121.373C125.616,162 129.686,160.314 132.686,157.314L157.314,132.686C160.314,129.686 162,125.616 162,121.373V46C162,37.163 154.837,30 146,30Z" fill="#000000" fill-opacity="0.0" stroke="#000000" stroke-width="12"/>
  <path d="M96.086,120.792C93.638,120.792 91.118,120.504 88.526,119.928C85.934,119.304 83.558,118.344 81.398,117.048C80.006,116.28 79.142,115.296 78.806,114.096C78.518,112.848 78.614,111.696 79.094,110.64C79.622,109.536 80.438,108.768 81.542,108.336C82.694,107.856 83.966,108 85.358,108.768C88.718,110.592 92.222,111.504 95.87,111.504C98.606,111.504 100.718,110.832 102.206,109.488C103.742,108.144 104.51,106.344 104.51,104.088C104.51,101.784 103.766,99.936 102.278,98.544C100.838,97.152 98.87,96.456 96.374,96.456C95.126,96.456 93.854,96.672 92.558,97.104C91.262,97.488 89.966,98.184 88.67,99.192C88.19,99.576 87.542,99.936 86.726,100.272C85.958,100.608 85.166,100.776 84.35,100.776C81.422,100.776 79.958,99.408 79.958,96.672V74.064C79.958,70.848 81.566,69.24 84.782,69.24H107.894C111.11,69.24 112.718,70.776 112.718,73.848C112.718,76.872 111.11,78.384 107.894,78.384H90.686V89.76C93.038,88.224 95.87,87.456 99.182,87.456C102.398,87.456 105.206,88.152 107.606,89.544C110.006,90.888 111.878,92.784 113.222,95.232C114.566,97.68 115.238,100.512 115.238,103.728C115.238,107.136 114.47,110.112 112.934,112.656C111.398,115.2 109.19,117.192 106.31,118.632C103.43,120.072 100.022,120.792 96.086,120.792Z" fill="#000000"/>
</svg>
